X: 40440
T: Tom Morrison's Maggie
R: polka
M: 2/4
K: Gmajor
|:"tr"g2"tr"f2|e/d/e/f/ ed|B/A/B/d/ ed|B/A/B/d/ e>f|"tr"g2"tr"f2|e/d/e/f/ ed|B/A/B/d/ ed|B/G/A/F/ G2:|
|:DG G/B/A/G/|FA A/B/c/d/|ed B/A/B/d/|eA A/B/A/F/|DG G/B/A/G/|FA A/B/c/d/|ed B/A/F/A/|G4:|

